packages/core/src/svgs/tokens/branded/OSAK.svg

<svg width="24" height="24" viewBox="0 0 24 24" fill="none" xmlns="http://www.w3.org/2000/svg">
<path d="M11.9997 21.4119C17.1976 21.4119 21.4114 17.1982 21.4114 12.0002C21.4114 6.80216 17.1976 2.58838 11.9997 2.58838C6.80168 2.58838 2.58789 6.80216 2.58789 12.0002C2.58789 17.1982 6.80168 21.4119 11.9997 21.4119Z" fill="#DE1010"/>
<path fill-rule="evenodd" clip-rule="evenodd" d="M12 21.4117C14.4961 21.4117 16.8901 20.4202 18.6551 18.6551C20.4202 16.89 21.4117 14.4961 21.4117 12C21.4117 9.50377 20.4202 7.10991 18.6551 5.34487C16.8901 3.57982 14.4961 2.58823 12 2.58823C9.5039 2.58823 7.10991 3.57982 5.34487 5.34487C3.57983 7.10991 2.58823 9.50377 2.58823 12C2.58823 14.4961 3.57983 16.89 5.34487 18.6551C7.10991 20.4202 9.5039 21.4117 12 21.4117ZM12 22C14.6522 22 17.1957 20.9464 19.0711 19.071C20.9464 17.1957 22 14.6522 22 12C22 9.34785 20.9464 6.80429 19.0711 4.92892C17.1957 3.05357 14.6522 2 12 2C9.34784 2 6.80429 3.05357 4.92892 4.92892C3.05357 6.80429 2 9.34785 2 12C2 14.6522 3.05357 17.1957 4.92892 19.071C6.80429 20.9464 9.34784 22 12 22Z" fill="#101010"/>
<path d="M8.41167 7.31774C8.71754 7.61774 9.68224 6.69422 11.941 6.70598C14.2116 6.70598 15.0823 7.81774 15.3175 7.6648C16.3469 6.99422 16.8294 5.74716 18.347 6.23539C18.6587 6.33539 18.8528 6.54127 18.9351 6.85303C19.2764 8.10598 18.847 9.81188 18.347 10.9707C18.1587 11.406 17.9999 11.9119 18.0117 12.3648C18.0588 13.8354 18.3117 15.5118 18.0999 16.9648C18.0588 17.2471 17.9823 17.5119 17.8645 17.7707C16.7999 20.1354 14.2175 20.8236 11.9646 20.8236C9.68224 20.8236 6.6352 19.906 5.59402 17.7471C5.50974 17.5743 5.44464 17.3929 5.39991 17.2059C5.1352 16.0707 5.24696 13.2825 5.67049 12.2413C5.72932 12.0942 5.71755 11.9001 5.65873 11.7531C5.14108 10.4589 4.89403 8.6648 4.95285 7.27656C4.97049 6.67657 5.28814 6.28833 5.84108 6.1648C6.37049 6.05303 6.85284 6.13538 7.28813 6.40598C7.64108 6.62363 8.01167 6.9295 8.40578 7.31774H8.41167Z" fill="black" fill-opacity="0.9"/>
<path d="M5.99982 8.72949C6.15276 9.21184 6.26453 9.7059 6.31159 10.2C6.32336 10.3294 6.29982 10.453 6.23512 10.5706L6.22335 10.5824C6.21799 10.5856 6.21191 10.5872 6.2057 10.5872C6.19951 10.5872 6.19343 10.5856 6.18807 10.5824L6.17041 10.5706C5.72335 9.78249 5.3763 7.57654 5.92336 6.87654C6.30571 6.37655 7.45865 7.32361 7.73512 7.57654C7.841 7.67066 7.92924 7.78243 8.0057 7.91184C8.02335 7.94126 8.02335 7.97067 7.99983 7.9942C7.68218 8.36478 7.26453 8.61184 6.97629 9.01185C6.841 9.20597 6.75276 9.18831 6.71158 8.95302C6.68806 8.7942 6.64101 8.65302 6.57042 8.5236C6.49983 8.38831 6.39395 8.34713 6.24688 8.38244C6.08806 8.42361 5.95277 8.54125 6.00571 8.73537L5.99982 8.72949ZM17.7468 8.61772C17.7394 8.59585 17.7273 8.57581 17.7116 8.5589C17.6893 8.53383 17.6593 8.51678 17.6263 8.5104C17.5934 8.50403 17.5594 8.50867 17.5293 8.5236C17.1469 8.72948 17.141 9.07066 16.994 9.42947C16.9704 9.48245 16.941 9.48835 16.9057 9.44718C16.6528 9.1589 16.141 8.42949 15.7822 8.28243C15.7528 8.27067 15.741 8.2236 15.7645 8.20008C16.2586 7.65302 16.7881 7.22361 17.3469 6.92361C17.4939 6.84126 17.8763 6.70596 18.0175 6.87067C18.288 7.18832 18.3881 7.51773 18.3174 7.84714C18.1174 8.87655 17.8351 9.90602 17.6528 10.9295C17.6233 11.1001 17.5762 11.1059 17.5057 10.9412L17.4115 10.7059C17.4018 10.6774 17.4018 10.6464 17.4115 10.6177C17.5528 10.1177 17.6763 9.57071 17.7764 8.98243C17.7939 8.85301 17.788 8.72948 17.7468 8.61772ZM6.041 14.7765C6.09982 13.6295 5.95277 12.6765 6.51159 11.6118C6.9092 10.8647 7.47508 10.2203 8.16453 9.72951C8.57041 9.43537 9.37636 9.91769 9.69396 10.1765C10.0798 10.5788 10.373 11.0606 10.5528 11.5884C10.6822 11.8942 10.8351 12.2119 11.0116 12.553C11.0234 12.5766 11.0528 12.5942 11.0822 12.6001C11.4821 12.6353 11.9057 12.6412 12.3704 12.6178C12.4382 12.6172 12.5044 12.5962 12.5601 12.5574C12.6158 12.5185 12.6584 12.4636 12.6821 12.4001C12.7998 12.1177 12.9116 11.8118 12.994 11.4824C13.1704 10.8236 13.9351 10.1177 14.4939 9.82367C15.2116 9.44127 15.6409 9.88241 16.0998 10.3531C16.6639 10.9098 17.0665 11.6091 17.2645 12.3766C17.3822 12.8471 17.3881 13.353 17.4233 13.8472C17.4469 14.1236 17.4292 14.4354 17.3822 14.7765C17.341 15.0883 17.5234 15.4353 17.5705 15.7472C17.6672 16.3438 17.5849 16.9558 17.3334 17.5057C17.0821 18.0554 16.6732 18.5182 16.1587 18.8354C14.8233 19.7472 13.8234 20.2354 11.941 20.2354C9.38802 20.2354 5.57042 18.9237 5.71159 15.8824C5.72924 15.4942 6.01747 15.1177 6.03512 14.7765H6.041Z" fill="#E6E6E6" fill-opacity="0.9"/>
<path d="M8.57568 12.4177C8.41098 12.4353 8.29332 12.5058 8.15214 12.5529C7.9698 12.6118 7.92862 12.5765 8.0345 12.4471C8.18156 12.2765 8.34626 12.0647 8.61686 12.0176C9.0345 11.9412 9.36394 12.0529 9.60509 12.347C9.74043 12.5117 9.68745 12.5647 9.4581 12.5001C9.17166 12.4176 8.87236 12.3897 8.57568 12.4177ZM15.0639 12.4942C14.8084 12.3566 14.5122 12.3149 14.2287 12.3765L13.9345 12.4412C13.6169 12.5176 13.558 12.453 13.7698 12.2353C14.0051 12 14.3581 11.9412 14.8286 12.0471C14.9462 12.0706 15.3816 12.4235 15.3404 12.5412C15.3404 12.5647 15.3109 12.5882 15.2815 12.5824C15.2033 12.5696 15.1289 12.5394 15.0639 12.4942ZM14.6698 15.1176C14.7287 15.1176 14.7581 15.0942 14.7521 15.0235C14.7108 14.6529 14.5568 14.3039 14.311 14.0236C14.2815 13.9941 14.2521 13.9882 14.2169 14.0118C13.9521 14.2 13.7462 14.6353 13.611 14.9411C13.5169 15.1411 13.3522 15.2589 13.1581 15.3058C13.111 15.3117 13.0698 15.2705 13.0816 15.2235L13.1992 14.4411C13.2303 14.1868 13.3225 13.9437 13.468 13.7327C13.6135 13.5216 13.8078 13.349 14.0344 13.2294C14.5051 12.9942 14.958 13.547 15.0816 13.9706C15.1992 14.3765 15.2874 14.7764 15.3404 15.1706C15.358 15.3117 15.3286 15.6 15.1345 15.5117C14.8018 15.3632 14.4452 15.2756 14.0815 15.253C14.0403 15.253 14.011 15.1588 14.0581 15.147C14.2698 15.0999 14.4698 15.0883 14.6698 15.1117V15.1176ZM8.58156 15.0588C8.75803 15.0765 8.9051 15.0118 9.09333 15.0588C9.16979 15.0765 9.17568 15.2235 9.09333 15.2353C8.74039 15.2705 8.38744 15.3647 8.05215 15.5176C8.01098 15.5353 7.99333 15.5176 7.98744 15.4764C7.96918 15.1624 7.981 14.8471 8.02274 14.5353C8.06979 14.1765 8.30509 13.547 8.61097 13.3353C9.0345 13.0411 9.58739 13.1412 9.81098 13.653C10.0051 14.1117 10.2933 14.753 10.2404 15.253C10.2286 15.3353 10.1404 15.3824 10.0757 15.3412C9.81688 15.1647 9.62857 14.9177 9.53455 14.5942C9.46976 14.3765 9.34623 14.1941 9.15803 14.0412C9.06391 13.9588 8.91097 14 8.86392 14.1235L8.51097 14.9352C8.49333 14.9941 8.52273 15.053 8.58156 15.0647V15.0588ZM12.011 16.1293C12.3345 16.1236 12.5992 15.9882 12.5933 15.8235C12.5933 15.6588 12.3227 15.5294 11.9992 15.5412C11.6757 15.5412 11.411 15.6823 11.411 15.847C11.4169 16.0058 11.6816 16.1352 12.011 16.1293ZM10.811 17.5293C10.5756 17.5412 10.2816 17.5293 10.0757 17.4001C10.0151 17.3624 9.96772 17.307 9.94041 17.2411C9.91104 17.1706 9.91104 17.1118 9.94041 17.0706C9.97568 17.0236 10.0169 17.0118 10.0639 17.0411C10.2698 17.1706 10.4052 17.2882 10.6639 17.3059C11.158 17.3353 11.5581 17.1647 11.858 16.7882C11.8863 16.7499 11.9273 16.723 11.9737 16.7121C12.02 16.7014 12.0687 16.7075 12.111 16.7294C12.1346 16.7412 12.1639 16.7647 12.1815 16.7882C12.5052 17.2176 12.8992 17.3823 13.3699 17.2765C13.5757 17.2294 13.6757 17.0706 13.8756 17.0295C14.0462 16.9941 14.0992 17.2411 13.9521 17.3177C13.7345 17.4235 13.5051 17.4941 13.2698 17.5236C13.2178 17.5281 13.1685 17.5487 13.1286 17.5823C13.0875 17.6201 13.0588 17.6692 13.0462 17.7236C12.9875 17.9882 12.8992 18.2589 12.7875 18.5294C12.7051 18.7294 12.5052 18.8824 12.3345 18.9764C12.1933 19.0529 12.0345 19.0765 11.8463 19.0412C11.6171 18.9712 11.4169 18.8289 11.2756 18.6353C11.101 18.3068 10.9705 17.9568 10.8875 17.5941C10.8757 17.553 10.8522 17.5352 10.811 17.5352V17.5293Z" fill="black" fill-opacity="0.9"/>
<path d="M11.8822 17.9C12.2763 17.7941 12.5527 18.1058 12.5822 18.4941C12.5822 18.553 12.5704 18.6118 12.541 18.6529C12.5102 18.6985 12.4644 18.7317 12.4116 18.7471C12.0763 18.847 11.5116 18.8354 11.4175 18.3883C11.412 18.3673 11.4123 18.3452 11.4186 18.3245C11.4247 18.3038 11.4365 18.2851 11.4527 18.2705C11.5822 18.1529 11.7116 17.947 11.8881 17.9H11.8822Z" fill="#AC221C" fill-opacity="0.9"/>
</svg>

<svg xmlns="http://www.w3.org/2000/svg" width="24" height="24" fill="none" viewBox="0 0 24 24">
    <path fill="#DE1010" d="M12 21.412a9.412 9.412 0 1 0 0-18.824 9.412 9.412 0 0 0 0 18.824"/>
    <path fill="#101010" fill-rule="evenodd" d="M12 21.412a9.411 9.411 0 1 0 0-18.823 9.411 9.411 0 0 0 0 18.823M12 22a10 10 0 1 0 0-20 10 10 0 0 0 0 20" clip-rule="evenodd"/>
    <path fill="#000" fill-opacity=".9" d="M8.412 7.318c.306.3 1.27-.624 3.529-.612 2.27 0 3.141 1.112 3.377.959 1.029-.67 1.511-1.918 3.029-1.43q.466.15.588.618c.341 1.253-.088 2.959-.588 4.118-.188.435-.347.94-.335 1.394.047 1.47.3 3.147.088 4.6a3 3 0 0 1-.236.806c-1.064 2.364-3.647 3.053-5.9 3.053-2.282 0-5.329-.918-6.37-3.077a2.6 2.6 0 0 1-.194-.541c-.265-1.135-.153-3.923.27-4.965a.7.7 0 0 0-.011-.488c-.518-1.294-.765-3.088-.706-4.476.017-.6.335-.989.888-1.112a1.9 1.9 0 0 1 1.447.241q.528.329 1.118.912z"/>
    <path fill="#E6E6E6" fill-opacity=".9" d="M6 8.73c.153.482.265.976.312 1.47a.63.63 0 0 1-.077.37l-.012.012a.03.03 0 0 1-.035 0l-.018-.011c-.447-.789-.794-2.994-.247-3.694.383-.5 1.536.447 1.812.7q.157.14.27.335.028.046-.005.082c-.318.37-.735.618-1.024 1.018q-.202.292-.264-.059-.036-.237-.142-.43c-.07-.135-.176-.176-.323-.14-.159.04-.294.158-.241.352zm11.747-.112a.16.16 0 0 0-.12-.108.15.15 0 0 0-.098.014c-.382.205-.388.547-.535.905q-.036.08-.088.018c-.253-.288-.765-1.018-1.124-1.165-.03-.011-.041-.058-.018-.082.495-.547 1.024-.976 1.583-1.276.147-.083.53-.218.67-.053.271.317.371.647.3.976-.2 1.03-.482 2.059-.664 3.083q-.044.257-.147.011l-.095-.235a.14.14 0 0 1 0-.088q.214-.751.365-1.636a.76.76 0 0 0-.03-.364M6.04 14.777c.059-1.147-.088-2.1.47-3.165A5.46 5.46 0 0 1 8.166 9.73c.405-.295 1.211.188 1.529.447.386.402.679.884.859 1.411.13.306.282.624.459.965.011.024.04.041.07.047a9 9 0 0 0 1.288.018.34.34 0 0 0 .312-.218c.118-.282.23-.588.312-.918.176-.658.941-1.364 1.5-1.658.718-.383 1.147.058 1.606.53a4.4 4.4 0 0 1 1.165 2.023c.117.47.123.976.158 1.47.024.277.006.588-.04.93-.042.311.14.658.188.97a3.05 3.05 0 0 1-1.412 3.088c-1.336.912-2.336 1.4-4.218 1.4-2.553 0-6.37-1.311-6.23-4.353.018-.388.306-.764.324-1.105z"/>
    <path fill="#000" fill-opacity=".9" d="M8.576 12.418c-.165.017-.283.088-.424.135q-.275.088-.117-.106c.147-.17.311-.382.582-.43q.626-.113.988.33c.135.165.082.218-.147.153a2.4 2.4 0 0 0-.882-.082m6.488.076a1.22 1.22 0 0 0-.835-.117l-.294.064c-.318.077-.377.012-.165-.206.235-.235.588-.294 1.059-.188.117.024.553.377.511.494 0 .024-.03.047-.059.041a.5.5 0 0 1-.217-.088m-.394 2.624c.059 0 .088-.024.082-.095a1.8 1.8 0 0 0-.441-1q-.043-.045-.094-.011c-.265.188-.47.623-.606.93a.65.65 0 0 1-.453.364c-.047.006-.088-.035-.076-.082l.117-.783a1.59 1.59 0 0 1 .835-1.212c.471-.235.924.318 1.048.742q.177.608.258 1.2c.018.14-.011.429-.206.34a3 3 0 0 0-1.053-.258c-.04 0-.07-.094-.023-.106.212-.047.412-.059.612-.035zm-6.088-.06c.176.018.323-.046.511 0 .077.018.083.165 0 .177-.353.036-.706.13-1.04.283-.042.017-.06 0-.066-.042a5 5 0 0 1 .036-.94c.047-.36.282-.989.588-1.2.423-.295.976-.195 1.2.317.194.459.482 1.1.43 1.6-.012.082-.1.13-.165.088a1.33 1.33 0 0 1-.541-.747 1.1 1.1 0 0 0-.377-.553c-.094-.082-.247-.041-.294.082l-.353.812c-.018.06.012.118.07.13zm3.429 1.071c.324-.005.588-.14.582-.306 0-.164-.27-.294-.594-.282-.323 0-.588.141-.588.306.006.159.27.288.6.282m-1.2 1.4c-.235.012-.53 0-.735-.129a.34.34 0 0 1-.136-.159c-.029-.07-.029-.13 0-.17.036-.047.077-.06.124-.03.206.13.341.247.6.265q.742.046 1.194-.518a.2.2 0 0 1 .323 0q.484.646 1.189.488c.206-.047.306-.205.506-.247.17-.035.223.212.076.289a2.2 2.2 0 0 1-.682.206.25.25 0 0 0-.141.058.3.3 0 0 0-.083.142 5 5 0 0 1-.258.805c-.083.2-.283.353-.453.447-.142.077-.3.1-.489.065a1.1 1.1 0 0 1-.57-.406 4.2 4.2 0 0 1-.389-1.04q-.015-.061-.076-.06z"/>
    <path fill="#AC221C" fill-opacity=".9" d="M11.882 17.9c.394-.106.67.206.7.594a.3.3 0 0 1-.041.159.24.24 0 0 1-.13.094c-.335.1-.9.088-.993-.359a.12.12 0 0 1 .035-.118c.13-.117.259-.323.435-.37z"/>
</svg>
